X: 1
T: Ashuelot Hornpipe
C: Ralph Page
R: hornpipe, reel
Z: 2012 John Chambers <jc:trillian.mit.edu>
B: Northern Junket, v.7, #10, March 1963
N: Corrected some note lengths in bars 8, 16.
M: 2/4
L: 1/16
K: D
A |:\
dcdA FAdf | e^def g2fg | afge fdec | dcdB A2A2 |
dcdA FAdf | e^def g2fg | afge fdec | d2d2d2 :|
|: DE |\
F2F2 FDEF | GFGA B4 | c2c2 cABc | d2dd d2DE |
F2F2 FDEF | GFGA B4 | c2c2 cABc | dBAF D2 :|

%%sep 1 1 500

